X: 26159
T: McIntyre's Fancy
R: jig
M: 6/8
K: Adorian
|:cde AGE|GAB ~A3|eag ecA|~e3 AGE|
cde dcA|~G3 AB/c/d|e2a ged|cAG ~A3:|
|:~a3 ged|~e2g edc|~A3 GAc|edc deg|
aeg dec|~A3 ~G3|cde ged|cAG ~A3:|

